public/icons/orange_dot_icon.svg

<svg width="204" height="205" viewBox="0 0 204 205" fill="none" xmlns="http://www.w3.org/2000/svg">
<g id="Group 14">
<path id="Vector" d="M189.242 116.857C197.087 68.5309 164.27 22.9958 115.944 15.1514C67.6175 7.30693 22.0823 40.1236 14.2378 88.4498C6.39337 136.776 39.2103 182.311 87.5365 190.156C135.863 198 181.398 165.183 189.242 116.857Z" fill="#003E6D"/>
<path id="Vector_2" d="M191.033 107.04C194.951 59.6915 159.743 18.1322 112.395 14.2145C65.0467 10.2968 23.4874 45.5043 19.5697 92.8526C15.652 140.201 50.8595 181.761 98.2078 185.678C145.556 189.596 187.116 154.388 191.033 107.04Z" fill="#7DCEF3"/>
<path id="Vector_3" d="M105.371 187.873C87.9827 187.873 70.9843 182.716 56.5262 173.056C42.0682 163.395 30.7997 149.663 24.1459 133.598C17.4921 117.533 15.7521 99.8549 19.1454 82.8004C22.5387 65.746 30.9129 50.0808 43.2095 37.786C55.5061 25.4912 71.1725 17.119 88.2274 13.7282C105.282 10.3374 122.96 12.0802 139.024 18.7363C155.089 25.3924 168.818 36.6628 178.477 51.1222C188.136 65.5816 193.29 82.5805 193.288 99.9693C193.258 123.276 183.985 145.619 167.504 162.098C151.022 178.577 128.678 187.846 105.371 187.873ZM105.371 15.836C88.7315 15.836 72.4649 20.7703 58.6292 30.015C44.7936 39.2597 34.0101 52.3995 27.6423 67.7729C21.2745 83.1462 19.6082 100.063 22.8545 116.383C26.1008 132.703 34.1139 147.694 45.8802 159.46C57.6464 171.227 72.6374 179.24 88.9576 182.486C105.278 185.732 122.194 184.066 137.568 177.698C152.941 171.33 166.081 160.547 175.326 146.711C184.57 132.876 189.505 116.609 189.505 99.9693C189.481 77.6629 180.61 56.2769 164.837 40.5039C149.064 24.7309 127.678 15.8594 105.371 15.836Z" fill="#003E6D"/>
<path id="Vector_4" d="M133.002 166.673C169.837 151.415 187.329 109.185 172.072 72.35C156.814 35.5146 114.584 18.0224 77.7487 33.2802C40.9133 48.5379 23.4211 90.7677 38.6788 127.603C53.9365 164.439 96.1664 181.931 133.002 166.673Z" fill="#E5F2F8"/>
<circle id="Ellipse 3" cx="105.376" cy="99.9761" r="20.8" fill="#FF763C"/>
<path id="Vector_5" d="M170.353 70.3739C169.997 70.375 169.647 70.2748 169.346 70.085C169.045 69.8953 168.804 69.6237 168.651 69.3021C162.935 57.3851 153.955 47.3348 142.754 40.3191C131.553 33.3034 118.591 29.6103 105.374 29.6691C94.3238 29.6912 83.4328 32.3064 73.5772 37.3042C63.7217 42.3021 55.1769 49.5431 48.6296 58.445C48.4822 58.6453 48.2966 58.8147 48.0837 58.9434C47.8709 59.0721 47.6348 59.1577 47.3889 59.1952C47.143 59.2326 46.8922 59.2213 46.6507 59.1618C46.4091 59.1023 46.1817 58.9959 45.9814 58.8485C45.781 58.7011 45.6117 58.5157 45.4829 58.3028C45.3542 58.09 45.2686 57.8539 45.2311 57.608C45.1936 57.3621 45.2049 57.1112 45.2644 56.8697C45.3239 56.6282 45.4304 56.4008 45.5778 56.2004C53.129 45.8912 63.2176 37.7098 74.8641 32.4506C86.5106 27.1915 99.3192 25.0332 112.046 26.1854C124.773 27.3377 136.985 31.7613 147.498 39.0267C158.01 46.2921 166.466 56.1525 172.043 67.6502C172.18 67.9392 172.243 68.2583 172.225 68.5779C172.207 68.8976 172.108 69.2076 171.938 69.4791C171.769 69.7506 171.534 69.9749 171.254 70.1314C170.975 70.2878 170.66 70.3712 170.34 70.3739H170.353Z" fill="#003E6D"/>
<path id="Vector_6" d="M105.374 174.04C92.4527 174.035 79.7574 170.652 68.5473 164.227C57.3372 157.801 48.0019 148.556 41.4674 137.409C34.933 126.263 31.4264 113.601 31.2958 100.68C31.1651 87.7601 34.415 75.0302 40.7227 63.7534C40.9685 63.3153 41.3782 62.9928 41.8618 62.8568C42.3454 62.7208 42.8632 62.7825 43.3014 63.0283C43.7395 63.2741 44.0619 63.6839 44.1978 64.1675C44.3338 64.6511 44.2722 65.1689 44.0264 65.607C38.0354 76.3075 34.9473 88.3888 35.0686 100.652C35.1898 112.914 38.5162 124.932 44.7175 135.512C50.9189 146.092 59.7797 154.866 70.42 160.963C81.0604 167.06 93.1103 170.268 105.374 170.269C105.875 170.269 106.356 170.469 106.711 170.823C107.066 171.178 107.265 171.659 107.265 172.161C107.265 172.662 107.066 173.143 106.711 173.498C106.356 173.853 105.875 174.052 105.374 174.052V174.04Z" fill="#003E6D"/>
</g>
</svg>

<svg width="204" height="205" fill="none" xmlns="http://www.w3.org/2000/svg"><path d="M189.242 116.857c7.845-48.326-24.972-93.861-73.298-101.706C67.618 7.307 22.082 40.124 14.238 88.45 6.393 136.776 39.21 182.31 87.537 190.156c48.326 7.844 93.861-24.973 101.705-73.299z" fill="#003E6D"/><path d="M191.033 107.04c3.918-47.349-31.29-88.908-78.638-92.826-47.348-3.917-88.908 31.29-92.825 78.639-3.918 47.348 31.29 88.908 78.638 92.825 47.348 3.918 88.908-31.29 92.825-78.638z" fill="#7DCEF3"/><path d="M105.371 187.873A87.92 87.92 0 0 1 43.21 37.786a87.916 87.916 0 0 1 150.078 62.183 88.018 88.018 0 0 1-87.917 87.904zm0-172.037a84.134 84.134 0 1 0 84.134 84.133 84.224 84.224 0 0 0-84.134-84.133z" fill="#003E6D"/><path d="M133.002 166.673c36.835-15.258 54.327-57.488 39.07-94.323-15.258-36.835-57.488-54.328-94.323-39.07-36.836 15.258-54.328 57.488-39.07 94.323 15.258 36.836 57.487 54.328 94.323 39.07z" fill="#E5F2F8"/><circle cx="105.376" cy="99.976" r="20.8" fill="#FF763C"/><path d="M170.353 70.374a1.879 1.879 0 0 1-1.702-1.072 69.836 69.836 0 0 0-63.277-39.633A70.617 70.617 0 0 0 48.63 58.445a1.895 1.895 0 0 1-3.052-2.245 74.108 74.108 0 0 1 126.465 11.45 1.9 1.9 0 0 1-.789 2.481c-.279.157-.594.24-.914.243h.013zM105.374 174.04a74.115 74.115 0 0 1-74.078-73.36 74.107 74.107 0 0 1 9.427-36.927 1.894 1.894 0 1 1 3.303 1.854 70.312 70.312 0 0 0 61.348 104.662 1.895 1.895 0 0 1 1.891 1.892 1.89 1.89 0 0 1-1.891 1.891v-.012z" fill="#003E6D"/></svg>
